toolkits/global/packages/global-context/img/icons/tick-circle.svg

<svg height="24" viewBox="0 0 24 24" width="24" xmlns="http://www.w3.org/2000/svg"><path d="m12 2c5.5228475 0 10 4.4771525 10 10s-4.4771525 10-10 10-10-4.4771525-10-10 4.4771525-10 10-10zm0 1c-4.97056275 0-9 4.02943725-9 9 0 4.9705627 4.02943725 9 9 9 4.9705627 0 9-4.0294373 9-9 0-4.97056275-4.0294373-9-9-9zm4.2199868 5.36606669c.3613514-.43716226.9989118-.49032077 1.424031-.11873285s.4768133 1.02720949.115462 1.46437175l-6.093335 6.94397871c-.3622945.4128716-.9897871.4562317-1.4054264.0971157l-3.89719065-3.3672071c-.42862421-.3673054-.48653564-1.0223772-.1293488-1.4631437s.99421256-.5003185 1.42283677-.1330131l3.11097438 2.6987741z" fill="#666" fill-rule="evenodd"/></svg>

<?xml version="1.0" encoding="UTF-8"?>
<svg width="24px" height="24px" viewBox="0 0 24 24" version="1.1" xmlns="http://www.w3.org/2000/svg" xmlns:xlink="http://www.w3.org/1999/xlink">
    <!-- Generator: Sketch 63.1 (92452) - https://sketch.com -->
    <title>icon-icon / tick-circle</title>
    <desc>Created with Sketch.</desc>
    <g id="icon-/-tick-circle" stroke="none" stroke-width="1" fill="none" fill-rule="evenodd">
        <path d="M12,2 C17.5228475,2 22,6.4771525 22,12 C22,17.5228475 17.5228475,22 12,22 C6.4771525,22 2,17.5228475 2,12 C2,6.4771525 6.4771525,2 12,2 Z M12,3 C7.02943725,3 3,7.02943725 3,12 C3,16.9705627 7.02943725,21 12,21 C16.9705627,21 21,16.9705627 21,12 C21,7.02943725 16.9705627,3 12,3 Z M16.2199868,8.36606669 C16.5813382,7.92890443 17.2188986,7.87574592 17.6440178,8.24733384 C18.069137,8.61892176 18.1208311,9.27454333 17.7594798,9.71170559 L17.7594798,9.71170559 L11.6661448,16.6556843 C11.3038503,17.0685559 10.6763577,17.111916 10.2607184,16.7528 L10.2607184,16.7528 L6.36352775,13.3855929 C5.93490354,13.0182875 5.87699211,12.3632157 6.23417895,11.9224492 C6.59136579,11.4816827 7.22839151,11.4221307 7.65701572,11.7894361 L7.65701572,11.7894361 L10.7679901,14.4882102 Z" id="tick-circle" fill="#666666"></path>
    </g>
</svg>
